packages/foundations/assets/icons/functional/images/audio & video/fast_forward_30_14.svg

<svg width="14" height="14" viewBox="0 0 14 14" fill="none" xmlns="http://www.w3.org/2000/svg">
<g clip-path="url(#clip0_184_301)">
<path fill-rule="evenodd" clip-rule="evenodd" d="M2.83251 10.7739C3.28251 10.7739 3.55651 10.3909 3.55651 10.1039C3.55651 9.7759 3.03651 8.9839 3.03651 8.0949C3.03651 6.2099 4.47251 4.7889 6.22151 4.6249L5.74251 5.0749C5.63351 5.2119 5.53751 5.3899 5.53751 5.5669C5.53751 5.9229 5.86551 6.2369 6.23451 6.2369C6.42074 6.23918 6.60064 6.1693 6.73651 6.0419L8.26051 4.5049C8.38502 4.37054 8.45243 4.19304 8.44851 4.0099C8.44898 3.92578 8.43238 3.84245 8.39973 3.76493C8.36707 3.68741 8.31903 3.61732 8.25851 3.5589L6.71151 2.0009C6.64999 1.93626 6.576 1.88476 6.49401 1.84953C6.41202 1.81429 6.32374 1.79605 6.23451 1.7959C6.04989 1.79669 5.87307 1.87038 5.74253 2.00092C5.61198 2.13146 5.5383 2.30829 5.53751 2.4929C5.53751 2.6709 5.60651 2.8349 5.74251 2.9709L6.05751 3.2849C4.85927 3.39535 3.74581 3.95047 2.93643 4.84091C2.12706 5.73135 1.68043 6.89258 1.68451 8.0959C1.68451 9.0659 2.05351 10.7739 2.83251 10.7739ZM6.17351 7.2439C7.05651 7.2439 7.69651 7.8239 7.69651 8.6209C7.69651 8.9099 7.54851 9.1639 7.25551 9.3799C7.65651 9.6039 7.90051 9.9449 7.90051 10.3469C7.90051 12.0689 5.79851 12.1699 5.10851 12.2039H5.07551C4.89516 12.2083 4.72046 12.1408 4.58984 12.0164C4.45922 11.892 4.38338 11.7207 4.37901 11.5404C4.37463 11.3601 4.44208 11.1854 4.56651 11.0547C4.69094 10.9241 4.86216 10.8483 5.04251 10.8439C6.02551 10.7969 6.53951 10.6519 6.53951 10.4139C6.53951 10.3179 6.47951 10.2129 6.34951 10.2129C5.99551 10.2129 5.85951 10.3309 5.64651 10.3309C5.47031 10.3247 5.30324 10.251 5.17997 10.1249C5.05671 9.99887 4.98671 9.83019 4.98451 9.6539C4.98451 9.3629 5.19751 9.1069 5.51151 9.0419C6.03351 8.9359 6.35551 8.8149 6.35551 8.7159C6.35551 8.6649 6.29251 8.6059 6.14351 8.6059C5.73151 8.6059 5.47751 8.8679 5.15751 8.8679C4.98034 8.86147 4.81248 8.78701 4.68881 8.65999C4.56514 8.53297 4.49519 8.36317 4.49351 8.1859C4.49351 7.9389 4.63351 7.6959 4.87351 7.5769C5.33351 7.3499 5.74751 7.2439 6.17351 7.2439ZM10.4305 7.2889C11.5505 7.2889 12.3155 8.0819 12.3155 9.2979V10.0629C12.3155 11.2929 11.5235 12.0859 10.3615 12.0859C9.30951 12.0859 8.54451 11.2789 8.54451 10.0909V9.2429C8.54451 8.0819 9.33651 7.2889 10.4305 7.2889ZM10.4735 8.6529H10.4165C10.1165 8.6599 9.91051 8.7379 9.91051 9.2299V10.0899C9.91051 10.5689 10.0605 10.7149 10.4305 10.7079C10.7575 10.7019 10.9355 10.5409 10.9355 10.0499V9.2839C10.9355 8.7099 10.6625 8.6469 10.4155 8.6529H10.4735Z" fill="#1A1C1F"/>
</g>
<defs>
<clipPath id="clip0_184_301">
<rect width="14" height="14" fill="white"/>
</clipPath>
</defs>
</svg>

<svg xmlns="http://www.w3.org/2000/svg" width="14" height="14" fill="none"><g clip-path="url(#a)"><path fill="#1A1C1F" fill-rule="evenodd" d="M2.833 10.774c.45 0 .724-.383.724-.67 0-.328-.52-1.12-.52-2.01 0-1.884 1.436-3.305 3.185-3.47l-.48.45c-.108.138-.204.316-.204.493 0 .356.328.67.697.67a.72.72 0 0 0 .502-.195L8.26 4.505a.71.71 0 0 0 .139-.74.6.6 0 0 0-.141-.206L6.712 2a.66.66 0 0 0-.477-.205.7.7 0 0 0-.697.697c0 .178.069.342.205.478l.315.314a4.815 4.815 0 0 0-4.373 4.81c0 .97.369 2.679 1.148 2.679m3.34-3.53c.884 0 1.524.58 1.524 1.377q0 .434-.441.759c.4.224.645.565.645.967 0 1.722-2.102 1.823-2.792 1.857h-.033a.68.68 0 0 1-.033-1.36c.983-.047 1.497-.192 1.497-.43 0-.096-.06-.201-.19-.201-.354 0-.49.118-.703.118a.686.686 0 0 1-.662-.677c0-.291.213-.547.527-.612.522-.106.844-.227.844-.326 0-.051-.063-.11-.212-.11-.412 0-.666.262-.986.262a.69.69 0 0 1-.664-.682c0-.247.14-.49.38-.61.46-.226.874-.332 1.3-.332m4.258.045c1.12 0 1.885.793 1.885 2.009v.765c0 1.23-.793 2.023-1.955 2.023-1.051 0-1.816-.807-1.816-1.995v-.848c0-1.161.792-1.954 1.886-1.954m.043 1.364h-.058c-.3.007-.505.085-.505.577v.86c0 .479.15.625.52.618.327-.006.505-.167.505-.658v-.766c0-.574-.274-.637-.52-.631z" clip-rule="evenodd"/></g><defs><clipPath id="a"><path fill="#fff" d="M0 0h14v14H0z"/></clipPath></defs></svg>
